X:1
T:Title
%%score { ( 1 3 ) | ( 2 4 ) }
L:1/8
M:4/4
K:Ab
V:1 treble nm="Grand Piano"
V:3 treble 
V:2 bass 
V:4 bass 
V:1
 z4 z2[Q:1/4=100] [Cc]2 | [Cc]2 [CG]2 [CA]2 [Cc]2 | B2 F2 G2 [EG]2 | [EA]2 [EA]2 [Ed]2 [Ec]2 | %4
[M:3/4] c4 z2 |[M:1/4] [FB]2 |[M:4/4] [=Ec]2 [EG]2 [FA]2 [Fc]2 | [B,FB]2 [B,FA]2 [B,EG]2 .[A,EA]2 | %8
 z2 .d2 c2 z2 |[M:7/4] [CA]6 z2 z2 z4 |[M:4/4] [DA]8 | [CA]8 |] %12
V:2
 z4 z2 [A,,E,]2 | [A,,E,]2 [A,,E,]2 [A,,=E,]2 [A,,E,]2 | [D,F,D]2 [D,B,]2 [E,B,E]2 [D,B,]2 | %3
 [C,A,]2 [C,A,]2 [B,,G,]2 [A,,A,]2 |[M:3/4] [A,E]2 z2 z2 |[M:1/4] [D,G,]2 | %6
[M:4/4] [C,G,]2 [C,C]2 [F,C]2 [E,A,]2 | =D,2 D,2 E,_D, z _G | D,2 [D,A,]2 .[E,A,E]2 [E,G,D]2 | %9
[M:7/4] [A,,A,]6 z2 z2 z4 |[M:4/4] [D,F,]8 | [A,,E,]8 |] %12
V:3
 x8 | x8 | x8 | x8 |[M:3/4] z2 =D2 B2 |[M:1/4] x2 |[M:4/4] x8 | x8 | [A,FA]2 F-[Fc] z F, B2 | %9
[M:7/4] x14 |[M:4/4] x8 | x8 |] %12
V:4
 x8 | x8 | x8 | x8 |[M:3/4] E,2- [E,-F,]2 [E,G,E]2 |[M:1/4] x2 |[M:4/4] x8 | z4 z2 C,2 | x8 | %9
[M:7/4] x14 |[M:4/4] x8 | x8 |] %12

